assets/img/ubuntu-one-mono-logo-dark.svg

<?xml version="1.0" encoding="UTF-8"?>
<svg width="241px" height="99px" viewBox="0 0 241 99" version="1.1" xmlns="http://www.w3.org/2000/svg" xmlns:xlink="http://www.w3.org/1999/xlink">
    <title>Group</title>
    <g id="Page-1" stroke="none" stroke-width="1" fill="none" fill-rule="evenodd">
        <g id="Group" transform="translate(0.000000, 0.000002)" fill-rule="nonzero">
            <path d="M0,13.1354374 L0.31287126,68.9327424 C0.31287126,68.9327424 0.01889328,92.3865014 25.484029,97.3295644 C40.130335,100.172568 67.831123,93.5800724 67.831123,93.5800724 L67.61056,13.0764874 L45.334226,13.0764874 L45.334226,75.7149044 L24.381236,75.7149044 L24.381236,34.2500414 L15.338366,34.2500414 L25.925141,12.8559284 L0,13.1354374 Z" id="Path" fill="#E95420"></path>
            <path d="M106.401361,38.9046166 C105.310713,39.1772731 103.862229,39.4669716 102.055905,39.7737079 C100.283621,40.0804464 98.2216618,40.2338167 95.8700202,40.2338167 C93.8250859,40.2338167 92.1039455,39.9441181 90.7065946,39.3647255 C89.3092238,38.7512485 88.1845183,37.8991994 87.3324758,36.8085737 C86.4804201,35.7179524 85.8669431,34.4398788 85.4920472,32.9743482 C85.1171401,31.4747468 84.9296922,29.8217705 84.9296922,28.0154151 L84.9296922,13.0874928 L89.6841331,13.0874928 L89.6841331,26.9929535 C89.6841264,30.2307552 90.195355,32.5483281 91.2178254,33.9456857 C92.2402737,35.3430521 93.9614141,36.041733 96.3812487,36.0417286 C96.892464,36.041733 97.4207347,36.0246376 97.9660631,35.9906111 C98.5113582,35.9565401 99.0225868,35.922447 99.4997533,35.888376 C99.976882,35.8202119 100.402907,35.7690944 100.777829,35.7350012 C101.186794,35.6668371 101.47649,35.598673 101.64692,35.5305089 L101.64692,13.0874928 L106.401361,13.0874928 L106.401361,38.9046277 M118.099006,14.2633223 C118.678389,13.888446 119.547481,13.4965032 120.706279,13.0874928 C121.899138,12.6785357 123.262416,12.4740439 124.796121,12.4740166 C126.704696,12.4740439 128.391755,12.8148637 129.857298,13.496477 C131.356887,14.1781427 132.617918,15.1324382 133.640402,16.3593662 C134.662837,17.5863405 135.429682,19.0518657 135.940939,20.7559457 C136.486223,22.4600626 136.758906,24.3345733 136.758906,26.3794787 C136.758906,28.5266547 136.435101,30.4693295 135.787569,32.2075009 C135.174068,33.911608 134.287937,35.360092 133.129173,36.5529594 C131.970361,37.7458313 130.572999,38.6660445 128.937085,39.3136013 C127.301131,39.9611603 125.460705,40.2849387 123.415799,40.2849387 C121.200457,40.2849387 119.240742,40.1315639 117.536653,39.8248321 C115.832546,39.5180936 114.435184,39.2113551 113.344565,38.9046166 L113.344565,0.817968306 L118.099006,0 L118.099006,14.2633223 M118.099006,35.5304978 C118.576143,35.666826 119.240742,35.8031587 120.092802,35.9394824 C120.978922,36.0417397 122.069546,36.0928572 123.364675,36.0928572 C125.920811,36.0928572 127.96573,35.2578525 129.499438,33.5878296 C131.033108,31.8837381 131.799973,29.4809589 131.799973,26.3794854 C131.799973,25.0162188 131.663623,23.7381451 131.390991,22.5452577 C131.118312,21.3523992 130.675246,20.3299398 130.061791,19.4778703 C129.448296,18.5917591 128.647369,17.9101194 127.659009,17.4329495 C126.704696,16.921742 125.545909,16.6661042 124.182644,16.6661042 C122.887515,16.6661042 121.694646,16.8876609 120.604033,17.3307034 C119.513399,17.7737916 118.678389,18.2338982 118.099006,18.711025 L118.099006,35.5304978 M164.040257,38.9046166 C162.949609,39.1772731 161.501123,39.4669716 159.694801,39.7737079 C157.922516,40.0804464 155.860558,40.2338167 153.508914,40.2338167 C151.463982,40.2338167 149.742841,39.9441181 148.34549,39.3647255 C146.94812,38.7512485 145.823414,37.8991994 144.971372,36.8085737 C144.119316,35.7179524 143.505839,34.4398788 143.130943,32.9743482 C142.756036,31.4747468 142.568588,29.8217705 142.568588,28.0154151 L142.568588,13.0874928 L147.323029,13.0874928 L147.323029,26.9929535 C147.32302,30.2307552 147.834251,32.5483281 148.856719,33.9456857 C149.87917,35.3430521 151.60031,36.041733 154.020145,36.0417286 C154.53136,36.041733 155.059631,36.0246376 155.604959,35.9906111 C156.150254,35.9565401 156.661483,35.922447 157.138649,35.888376 C157.615778,35.8202119 158.041802,35.7690944 158.416725,35.7350012 C158.82569,35.6668371 159.115386,35.598673 159.285816,35.5305089 L159.285816,13.0874928 L164.040257,13.0874928 L164.040257,38.9046277 M171.607285,13.8543382 C172.697904,13.5817081 174.146388,13.2920114 175.952742,12.9852469 C177.759079,12.6785357 179.83808,12.5251396 182.189751,12.5251396 C184.302818,12.5251396 186.05804,12.8319045 187.455422,13.445354 C188.852762,14.0247739 189.960428,14.8597823 190.778419,15.950382 C191.630444,17.0069469 192.226879,18.2850213 192.567724,19.7846083 C192.908517,21.2842353 193.078954,22.9372113 193.078954,24.7435402 L193.078954,39.6714617 L188.324514,39.6714617 L188.324514,25.7660018 C188.324491,24.130081 188.20521,22.732719 187.966653,21.5739141 C187.762141,20.4151449 187.404278,19.4778905 186.89307,18.762148 C186.381819,18.0464473 185.70018,17.5352177 184.848149,17.2284574 C183.996082,16.88766 182.93954,16.7172502 181.67852,16.7172273 C181.167278,16.7172502 180.639007,16.7342961 180.093708,16.7683493 C179.548384,16.8024535 179.020113,16.8535777 178.508893,16.9217174 C178.031736,16.9558216 177.588669,17.0069458 177.179695,17.0750855 C176.804784,17.1432718 176.532128,17.1943938 176.361726,17.2284537 L176.361726,39.6714617 L171.607285,39.6714617 L171.607285,13.8543344 M203.539295,13.0874928 L213.610529,13.0874928 L213.610529,17.0750884 L203.539295,17.0750884 L203.539295,29.3446129 C203.539288,30.6738196 203.64153,31.7814853 203.846033,32.6676098 C204.050526,33.5196655 204.357255,34.2013044 204.766249,34.7125307 C205.175222,35.1896817 205.686451,35.5305022 206.299939,35.7349901 C206.913402,35.9394824 207.629123,36.041733 208.447106,36.0417286 C209.878534,36.041733 211.020282,35.8883538 211.872347,35.581622 C212.758462,35.2408059 213.371937,35.0022315 213.712775,34.8658989 L214.632991,38.8023705 C214.155824,39.0409471 213.320815,39.3306434 212.127963,39.6714617 C210.935076,40.0463643 209.571798,40.2338167 208.038121,40.2338167 C206.231764,40.2338167 204.732156,40.0122778 203.539295,39.5692178 C202.380501,39.092069 201.443245,38.393388 200.727529,37.4731726 C200.011803,36.5529616 199.500573,35.4282561 199.193839,34.0990538 C198.92118,32.7357805 198.784854,31.1680083 198.784854,29.3957349 L198.784854,5.67465516 L203.539295,4.85668677 L203.539295,13.0874928 M240.201713,38.9046166 C239.111066,39.1772731 237.662595,39.4669716 235.856257,39.7737079 C234.083968,40.0804464 232.022021,40.2338167 229.67037,40.2338167 C227.625447,40.2338167 225.904298,39.9441181 224.506945,39.3647255 C223.109591,38.7512485 221.984873,37.8991994 221.132832,36.8085737 C220.280777,35.7179524 219.6673,34.4398788 219.292404,32.9743482 C218.917497,31.4747468 218.730051,29.8217705 218.730051,28.0154151 L218.730051,13.0874928 L223.484483,13.0874928 L223.484483,26.9929535 C223.484483,30.2307552 223.995703,32.5483281 225.018186,33.9456857 C226.040626,35.3430521 227.761775,36.041733 230.181612,36.0417286 C230.692832,36.041733 231.221098,36.0246376 231.766411,35.9906111 C232.311724,35.9565401 232.822943,35.922447 233.300114,35.888376 C233.777241,35.8202119 234.203272,35.7690944 234.578186,35.7350012 C234.987148,35.6668371 235.276851,35.598673 235.447273,35.5305089 L235.447273,13.0874928 L240.201713,13.0874928 L240.201713,38.9046277 M108.078065,62.2108191 C108.078065,64.3239131 107.7713,66.2325058 107.157852,67.9365952 C106.544348,69.6407023 105.675259,71.1062283 104.550578,72.3331756 C103.45993,73.5601295 102.147775,74.5144248 100.614104,75.1960658 C99.0803964,75.8436226 97.410378,76.1674032 95.6040492,76.1674032 C93.7976893,76.1674032 92.1276709,75.8436226 90.5939918,75.1960658 C89.0602928,74.5144248 87.7310971,73.5601295 86.6063982,72.3331756 C85.5157681,71.1062283 84.663719,69.6407023 84.0502465,67.9365952 C83.4367673,66.2325058 83.130031,64.3239131 83.130031,62.2108191 C83.130031,60.1318316 83.4367673,58.240281 84.0502465,56.5361628 C84.663719,54.7980003 85.5157681,53.3154343 86.6063982,52.0884604 C87.7310971,50.8615331 89.0602928,49.9242778 90.5939918,49.2766943 C92.1276709,48.5950799 93.7976893,48.2542327 95.6040492,48.2542327 C97.410378,48.2542327 99.0803964,48.5950799 100.614104,49.2766943 C102.147775,49.9242778 103.45993,50.8615331 104.550578,52.0884604 C105.675259,53.3154343 106.544348,54.7980003 107.157852,56.5361628 C107.7713,58.240281 108.078065,60.1318316 108.078065,62.2108191 M103.119132,62.2108191 C103.119132,59.2116162 102.437471,56.842919 101.074211,55.1047188 C99.7449931,53.3324764 97.9216088,52.4463209 95.6040492,52.4463209 C93.2864585,52.4463209 91.446032,53.3324764 90.0827632,55.1047188 C88.7535565,56.842919 88.0889642,59.2116162 88.0889642,62.2108191 C88.0889642,65.2100464 88.7535565,67.5957835 90.0827632,69.3680414 C91.446032,71.1062283 93.2864585,71.9753151 95.6040492,71.9753151 C97.9216088,71.9753151 99.7449931,71.1062283 101.074211,69.3680414 C102.437471,67.5957835 103.119132,65.2100464 103.119132,62.2108191 M113.51953,49.685679 C114.610149,49.4130492 116.058633,49.1233506 117.864986,48.8165877 C119.671321,48.5098759 121.750322,48.3564789 124.101995,48.3564789 C126.215062,48.3564789 127.970285,48.663244 129.367664,49.2766943 C130.765006,49.8561137 131.87267,50.6911229 132.690661,51.7817219 C133.542688,52.8382878 134.139123,54.1163614 134.479966,55.6159496 C134.820762,57.1155755 134.991197,58.7685517 134.991197,60.5748806 L134.991197,75.5028132 L130.236756,75.5028132 L130.236756,61.5973421 C130.236736,59.9614214 130.117452,58.5640594 129.878895,57.405254 C129.674381,56.2464842 129.316522,55.3092311 128.805312,54.593488 C128.294063,53.8777871 127.612422,53.3665585 126.760391,53.0597978 C125.908324,52.7189995 124.851782,52.5485914 123.590764,52.548567 C123.07952,52.5485914 122.551249,52.565658 122.00595,52.5996845 C121.460626,52.6337777 120.932355,52.6849174 120.421138,52.7530593 C119.943978,52.7871525 119.500911,52.8382922 119.091938,52.9064341 C118.717026,52.9746204 118.444372,53.025738 118.273971,53.0598089 L118.273971,75.5028132 L113.51953,75.5028132 L113.51953,49.6856901 M140.145095,62.2619411 C140.145095,59.9102972 140.485912,57.8653784 141.167555,56.1271782 C141.849191,54.3549358 142.752363,52.8894097 143.877075,51.7306 C145.001774,50.5718346 146.296889,49.7027455 147.762424,49.1233262 C149.227939,48.5439579 150.727545,48.2542327 152.261251,48.2542327 C155.839842,48.2542327 158.583442,49.3789671 160.492057,51.6283538 C162.400623,53.843705 163.354945,57.2348615 163.354945,61.8018345 C163.354945,62.006349 163.354945,62.2789943 163.354945,62.6198015 C163.354945,62.9265533 163.337854,63.2162497 163.303827,63.4888928 L145.104031,63.4888928 C145.308523,66.2495457 146.109444,68.3455865 147.506815,69.7770238 C148.904165,71.2084745 151.085412,71.9241954 154.05056,71.924191 C155.720561,71.9241954 157.117922,71.7878627 158.242648,71.5152085 C159.401413,71.2084745 160.270505,70.9187759 160.849922,70.6461173 L161.514521,74.6337109 C160.935104,74.9404493 159.912644,75.2642299 158.44714,75.6050483 C157.015676,75.9458688 155.37974,76.1162791 153.539329,76.1162791 C151.221738,76.1162791 149.210902,75.7754585 147.506815,75.0938197 C145.836787,74.3780988 144.456467,73.4067614 143.365848,72.1798075 C142.27522,70.952858 141.457253,69.5043741 140.911945,67.8343512 C140.400712,66.1302597 140.145095,64.2727911 140.145095,62.2619411 M158.396016,59.6546673 C158.430087,57.507518 157.884765,55.7522956 156.76008,54.3889957 C155.669439,52.9916559 154.152791,52.2929527 152.210131,52.2929527 C151.119494,52.2929527 150.148157,52.5145138 149.296119,52.9575517 C148.478141,53.3665585 147.77946,53.9118691 147.200076,54.593488 C146.620672,55.275149 146.160566,56.059034 145.819754,56.9451474 C145.513009,57.8312964 145.308517,58.7344697 145.206277,59.6546673 L158.396016,59.6546673" id="Shape" fill="#1D1D1D"></path>
        </g>
    </g>
</svg>

<svg width="241" height="99" xmlns="http://www.w3.org/2000/svg"><g fill="none"><path d="m0 13.135.313 55.798S.019 92.387 25.484 97.33c14.646 2.843 42.347-3.75 42.347-3.75l-.22-80.504H45.334v62.639H24.381V34.25h-9.043l10.587-21.394L0 13.136Z" fill="#E95420"/><path d="M106.401 38.905c-1.09.272-2.539.562-4.345.869-1.772.306-3.834.46-6.186.46-2.045 0-3.766-.29-5.163-.87-1.398-.613-2.522-1.465-3.375-2.555-.852-1.091-1.465-2.37-1.84-3.835-.375-1.5-.562-3.152-.562-4.959V13.087h4.754v13.906c0 3.238.511 5.555 1.534 6.953 1.022 1.397 2.743 2.096 5.163 2.096.511 0 1.04-.017 1.585-.051a173.61 173.61 0 0 0 1.534-.103c.477-.068.903-.119 1.278-.153.409-.068.698-.136.869-.204V13.087h4.754v25.818M118.1 14.263c.58-.375 1.448-.766 2.607-1.176 1.193-.408 2.556-.613 4.09-.613 1.909 0 3.596.34 5.061 1.022a10.52 10.52 0 0 1 3.783 2.863c1.023 1.227 1.79 2.693 2.3 4.397.546 1.704.819 3.579.819 5.623 0 2.148-.324 4.09-.971 5.829-.614 1.704-1.5 3.152-2.659 4.345-1.159 1.193-2.556 2.113-4.192 2.76-1.636.648-3.476.972-5.521.972-2.216 0-4.175-.153-5.88-.46-1.703-.307-3.1-.614-4.191-.92V.818L118.099 0v14.263m0 21.267c.477.137 1.142.273 1.994.41.886.102 1.977.153 3.272.153 2.556 0 4.6-.835 6.134-2.505 1.534-1.704 2.301-4.107 2.301-7.209 0-1.363-.136-2.64-.409-3.834-.273-1.193-.716-2.215-1.33-3.067a6.09 6.09 0 0 0-2.402-2.045c-.954-.511-2.113-.767-3.476-.767-1.295 0-2.488.222-3.579.665-1.09.443-1.926.903-2.505 1.38v16.82m45.941 3.374c-1.09.272-2.539.562-4.345.869-1.772.306-3.834.46-6.186.46-2.045 0-3.766-.29-5.164-.87-1.397-.613-2.522-1.465-3.374-2.555-.852-1.091-1.465-2.37-1.84-3.835-.375-1.5-.562-3.152-.562-4.959V13.087h4.754v13.906c0 3.238.511 5.555 1.534 6.953 1.022 1.397 2.743 2.096 5.163 2.096.511 0 1.04-.017 1.585-.051.545-.034 1.056-.069 1.534-.103.477-.068.903-.119 1.278-.153.409-.068.698-.136.869-.204V13.087h4.754v25.818m7.567-25.05c1.09-.273 2.54-.563 4.346-.87 1.806-.306 3.885-.46 6.237-.46 2.113 0 3.868.307 5.265.92 1.398.58 2.505 1.415 3.323 2.505.852 1.057 1.449 2.335 1.79 3.835.34 1.5.511 3.152.511 4.959V39.67h-4.754V25.766c0-1.636-.12-3.033-.358-4.192-.205-1.159-.563-2.096-1.074-2.812a4.196 4.196 0 0 0-2.045-1.534c-.852-.34-1.908-.51-3.17-.51-.51 0-1.039.016-1.584.05a22.71 22.71 0 0 0-1.585.154c-.477.034-.92.085-1.33.153-.374.068-.647.12-.817.153v22.443h-4.755V13.854m31.932-.767h10.072v3.988h-10.072v12.27c0 1.329.103 2.436.307 3.323.205.852.511 1.533.92 2.045.41.477.92.818 1.534 1.022.613.204 1.33.307 2.147.307 1.432 0 2.573-.154 3.425-.46.886-.341 1.5-.58 1.84-.716l.921 3.936c-.477.239-1.312.529-2.505.87-1.193.374-2.556.562-4.09.562-1.806 0-3.306-.222-4.499-.665-1.158-.477-2.096-1.176-2.811-2.096-.716-.92-1.227-2.045-1.534-3.374-.273-1.363-.41-2.931-.41-4.703V5.675l4.755-.818v8.23m36.663 25.818c-1.09.272-2.54.562-4.346.869-1.772.306-3.834.46-6.186.46-2.045 0-3.766-.29-5.163-.87-1.397-.613-2.522-1.465-3.374-2.555-.852-1.091-1.466-2.37-1.84-3.835-.376-1.5-.563-3.152-.563-4.959V13.087h4.754v13.906c0 3.238.512 5.555 1.534 6.953 1.023 1.397 2.744 2.096 5.164 2.096.51 0 1.04-.017 1.584-.051a173.58 173.58 0 0 0 1.534-.103c.477-.068.903-.119 1.278-.153.41-.068.699-.136.87-.204V13.087h4.754v25.818M108.078 62.21c0 2.113-.307 4.022-.92 5.726-.614 1.704-1.483 3.17-2.607 4.396a11.388 11.388 0 0 1-3.937 2.863c-1.534.648-3.204.971-5.01.971-1.806 0-3.476-.323-5.01-.97a11.914 11.914 0 0 1-3.988-2.864c-1.09-1.227-1.942-2.692-2.556-4.396-.613-1.704-.92-3.613-.92-5.726 0-2.08.307-3.97.92-5.675.614-1.738 1.466-3.22 2.556-4.448a11.323 11.323 0 0 1 3.988-2.811c1.534-.682 3.204-1.023 5.01-1.023 1.806 0 3.476.341 5.01 1.023a10.838 10.838 0 0 1 3.937 2.811c1.124 1.227 1.993 2.71 2.607 4.448.613 1.704.92 3.596.92 5.675m-4.959 0c0-3-.682-5.368-2.045-7.106-1.329-1.773-3.152-2.659-5.47-2.659-2.318 0-4.158.886-5.521 2.659-1.33 1.738-1.994 4.107-1.994 7.106 0 2.999.665 5.385 1.994 7.157 1.363 1.738 3.203 2.607 5.521 2.607s4.141-.869 5.47-2.607c1.363-1.772 2.045-4.158 2.045-7.157m10.4-12.525c1.091-.273 2.54-.563 4.346-.87 1.806-.306 3.885-.46 6.237-.46 2.113 0 3.868.307 5.266.92 1.397.58 2.505 1.415 3.323 2.506.852 1.056 1.448 2.334 1.789 3.834.34 1.5.511 3.153.511 4.959v14.928h-4.754V61.597c0-1.636-.12-3.033-.358-4.192-.205-1.159-.562-2.096-1.074-2.812a4.196 4.196 0 0 0-2.045-1.533c-.852-.341-1.908-.511-3.17-.511-.51 0-1.039.017-1.584.05-.545.035-1.074.086-1.585.154-.477.034-.92.085-1.33.153-.374.069-.647.12-.817.154v22.443h-4.754V49.686m26.625 12.576c0-2.352.34-4.397 1.023-6.135.681-1.772 1.584-3.238 2.71-4.396a11.002 11.002 0 0 1 3.884-2.608 12.151 12.151 0 0 1 4.5-.869c3.578 0 6.321 1.125 8.23 3.374 1.909 2.216 2.863 5.607 2.863 10.174v.818c0 .307-.017.596-.051.869h-18.2c.205 2.76 1.005 4.857 2.403 6.288 1.397 1.431 3.578 2.147 6.544 2.147 1.67 0 3.067-.136 4.192-.409 1.158-.307 2.028-.596 2.607-.869l.665 3.988c-.58.306-1.602.63-3.068.971-1.431.34-3.067.511-4.908.511-2.317 0-4.328-.34-6.032-1.022-1.67-.716-3.05-1.687-4.141-2.914-1.09-1.227-1.909-2.676-2.454-4.346-.511-1.704-.767-3.561-.767-5.572m18.251-2.607c.034-2.147-.511-3.903-1.636-5.266-1.09-1.397-2.607-2.096-4.55-2.096-1.09 0-2.062.222-2.914.665a6.583 6.583 0 0 0-2.096 1.635 8.07 8.07 0 0 0-1.38 2.352c-.307.886-.511 1.79-.614 2.71h13.19" fill="#1D1D1D"/></g></svg>
